X:1
T:Shelly River Waltz
C:Manus McGuire
A:Ireland
D:Moving Cloud / Foxglove / Green Linnet GLCD 1186
N:medley with New Year Waltz
Z:Simplified and transcribed by Moshe Braner, January 2000
R:Waltz
M:3/4
L:1/8
N:A part in E flat, B part in C minor
K:Eb
B \
|: "Eb"e2-egc'2 |     b2g2e2  | "Ab"e2-ece2  |  "Eb"B4G2    |\
   "Ab"A2-ABc2  | "Eb"B4e2    | "Bb7"d2-defe |      d2c2B2  |
   "Eb"e2-egc'2 |     b2g2e2  | "Ab"e2-ece2  |  "Eb"g4g2    |\
   "Fm"afc2-ca  | "Eb"geB2-Be | "Bb7"dc'bacd |1 "Eb"e4B2   :|2 e4G2 ||
|: "Cm"c2-cde2  |     G4e2    | "G7"d2-dfed  |  "Cm"e2c2c2  |\
   "Fm"a2-agfa  | "Cm"g2c2c2  | "G7"d2-dc=Bc |      d4G2    |
   "Cm"c2-cde2  |     G4e2    | "G7"d2-dfed  |  "Cm"e2c2c2  |\
   "Fm"a2-agfa  |     g2c2c2  | "G7"d2-dfed  |1 "Cm"c4G2   :|2 c4B2 ||
